files/1/128x128/actions/folder-new.svg

<?xml version="1.0" encoding="UTF-8" standalone="no"?>
<svg
   xmlns:dc="http://purl.org/dc/elements/1.1/"
   xmlns:cc="http://creativecommons.org/ns#"
   xmlns:rdf="http://www.w3.org/1999/02/22-rdf-syntax-ns#"
   xmlns:svg="http://www.w3.org/2000/svg"
   xmlns="http://www.w3.org/2000/svg"
   xmlns:sodipodi="http://sodipodi.sourceforge.net/DTD/sodipodi-0.dtd"
   xmlns:inkscape="http://www.inkscape.org/namespaces/inkscape"
   width="128"
   height="128"
   viewBox="0 0 102.4 102.4"
   version="1.1"
   id="svg2"
   inkscape:version="0.48.5 r10040"
   sodipodi:docname="folder-new.svg">
  <metadata
     id="metadata13">
    <rdf:RDF>
      <cc:Work
         rdf:about="">
        <dc:format>image/svg+xml</dc:format>
        <dc:type
           rdf:resource="http://purl.org/dc/dcmitype/StillImage" />
      </cc:Work>
    </rdf:RDF>
  </metadata>
  <defs
     id="defs11" />
  <sodipodi:namedview
     pagecolor="#ffffff"
     bordercolor="#666666"
     borderopacity="1"
     objecttolerance="10"
     gridtolerance="10"
     guidetolerance="10"
     inkscape:pageopacity="0"
     inkscape:pageshadow="2"
     inkscape:window-width="1280"
     inkscape:window-height="998"
     id="namedview9"
     showgrid="true"
     inkscape:zoom="23.6"
     inkscape:cx="123.74361"
     inkscape:cy="44.007985"
     inkscape:window-x="0"
     inkscape:window-y="0"
     inkscape:window-maximized="1"
     inkscape:current-layer="svg2">
    <inkscape:grid
       type="xygrid"
       id="grid2990"
       empspacing="5"
       visible="true"
       enabled="true"
       snapvisiblegridlinesonly="true" />
  </sodipodi:namedview>
  <g
     id="surface1"
     transform="scale(0.8,0.8)">
    <path
       style="fill:#c28f5c;fill-opacity:1;fill-rule:nonzero;stroke:none"
       d="m 0,8 0,104 72,0 0,-24 16,0 0,-16 32,0 0,16 8,0 0,-64 -64,0 0,-16 z m 0,0"
       id="path5"
       inkscape:connector-curvature="0" />
    <path
       style="fill:#859900;fill-opacity:1;fill-rule:evenodd;stroke:none"
       d="m 96,80 0,16 -16,0 0,16 16,0 0,16 16,0 0,-16 16,0 0,-16 -16,0 0,-16 z m 0,0"
       id="path7"
       inkscape:connector-curvature="0" />
  </g>
</svg>

<svg xmlns="http://www.w3.org/2000/svg" xmlns:xlink="http://www.w3.org/1999/xlink" width="128px" height="128px" viewBox="0 0 128 128" version="1.1">
<g id="surface1">
<path style=" stroke:none;fill-rule:nonzero;fill:rgb(76.862745%,56.470588%,36.862745%);fill-opacity:1;" d="M 0 8 L 0 112 L 72 112 L 72 88 L 88 88 L 88 72 L 120 72 L 120 88 L 128 88 L 128 24 L 64 24 L 64 8 Z M 96 80 L 96 96 L 80 96 L 80 112 L 96 112 L 96 128 L 112 128 L 112 112 L 128 112 L 128 96 L 112 96 L 112 80 Z M 96 80 "/>
</g>
</svg>
